packages/foundations/assets/icons/functional/images/navigation/gear_wheel_28.svg

<svg width="28" height="28" viewBox="0 0 28 28" fill="none" xmlns="http://www.w3.org/2000/svg">
<g clip-path="url(#clip0_187_31)">
<path fill-rule="evenodd" clip-rule="evenodd" d="M17.8997 3.0699L17.7623 5.0472L19.877 6.25555L21.5248 5.18456C21.6722 5.08868 21.8268 5.01969 21.9917 5.01969C23.3245 5.01969 25.8913 9.81435 25.8913 11.1165C25.8913 11.446 25.7048 11.759 25.397 11.9128L23.6394 12.7916V15.2084L25.397 16.0872C25.7048 16.241 25.8913 16.554 25.8913 16.8835C25.8913 18.2201 23.1662 22.9803 21.9917 22.9803C21.8268 22.9803 21.6722 22.9113 21.5248 22.8154L19.877 21.7444L17.7623 22.9528L17.8997 24.9026C17.9801 26.0449 15.7947 26.2483 14 26.2483C12.3052 26.2483 10.0179 26.0731 10.1003 24.9026L10.2377 22.9528L8.12302 21.7444L6.47527 22.8154C6.32781 22.9113 6.17323 22.9803 6.00836 22.9803C4.77039 22.9803 2.10876 18.2033 2.10876 16.8561C2.10876 16.554 2.30623 16.2356 2.603 16.0872L4.36061 15.2084V12.7916L2.603 11.9128C2.29525 11.759 2.10876 11.446 2.10876 11.1165C2.10876 9.81787 4.74754 5.01969 6.00836 5.01969C6.17323 5.01969 6.32781 5.08868 6.47527 5.18456L8.12302 6.25555L10.2377 5.0472L10.1278 3.0699C10.0739 2.09965 11.6252 1.8226 13.2313 1.76463L13.617 1.75469C13.6812 1.75365 13.7452 1.7529 13.8091 1.75241L14 1.75169C15.6976 1.75169 17.9784 1.93703 17.8997 3.0699ZM14 3.48179C13.3135 3.48179 12.5994 3.56422 11.9129 3.70149L12.0227 5.4866C12.0429 5.81554 11.8607 6.12303 11.5833 6.28306L8.53492 8.04067C8.39624 8.12064 8.26038 8.15052 8.09552 8.15052C7.93083 8.15052 7.77502 8.11071 7.6287 8.01316L6.14572 7.02451C5.21199 8.0955 4.49796 9.33136 4.05856 10.6771L5.62397 11.4734C5.91969 11.6239 6.11821 11.9128 6.11821 12.2424V15.7576C6.11821 16.0872 5.92075 16.3781 5.62397 16.5266L4.03106 17.3229C4.49796 18.6686 5.21199 19.9045 6.14572 20.948L7.6287 19.9868C7.77625 19.8912 7.93083 19.8221 8.09552 19.8221C8.26038 19.8221 8.39572 19.8803 8.53492 19.9593L11.5833 21.6895C11.8618 21.8476 12.0429 22.1845 12.0227 22.5134L11.9129 24.2985C12.5994 24.4358 13.3135 24.5182 14 24.5182C14.6865 24.5182 15.4007 24.4358 16.0872 24.2985L15.9773 22.5134C15.9571 22.1845 16.1382 21.8476 16.4167 21.6895L19.4651 19.9593C19.6043 19.8803 19.7396 19.8221 19.9045 19.8221C20.0692 19.8221 20.223 19.8925 20.3713 19.9868L21.8818 20.948C22.788 19.9045 23.5021 18.6686 23.969 17.3229L22.3761 16.5266C22.0793 16.3781 21.8818 16.0872 21.8818 15.7576V12.2424C21.8818 11.9128 22.0793 11.6219 22.3761 11.4734L23.969 10.6771C23.5021 9.33136 22.788 8.0955 21.8543 7.02451L20.3713 8.01316C20.225 8.11071 20.0692 8.15052 19.9045 8.15052C19.7396 8.15052 19.6038 8.12064 19.4651 8.04067L16.4167 6.28306C16.1393 6.12303 15.9571 5.81554 15.9773 5.4866L16.0872 3.70149C15.4007 3.56422 14.6865 3.48179 14 3.48179ZM14 9.62669C16.4214 9.62669 18.375 11.5803 18.375 14.0017C18.375 16.4231 16.4214 18.3767 14 18.3767C11.5787 18.3767 9.62501 16.4231 9.62501 14.0017C9.62501 11.5803 11.5787 9.62669 14 9.62669ZM14 11.3767C12.5508 11.3767 11.375 12.5525 11.375 14.0017C11.375 15.4509 12.5508 16.6267 14 16.6267C15.4492 16.6267 16.625 15.4509 16.625 14.0017C16.625 12.5525 15.4492 11.3767 14 11.3767Z" fill="#1A1C1F"/>
</g>
<defs>
<clipPath id="clip0_187_31">
<rect width="28" height="28" fill="white"/>
</clipPath>
</defs>
</svg>

<svg xmlns="http://www.w3.org/2000/svg" width="28" height="28" fill="none"><g clip-path="url(#a)"><path fill="#1A1C1F" fill-rule="evenodd" d="m17.9 3.07-.138 1.977 2.115 1.209 1.648-1.071c.147-.096.302-.165.467-.165 1.332 0 3.9 4.794 3.9 6.097 0 .329-.187.642-.495.796l-1.758.879v2.416l1.758.88a.89.89 0 0 1 .494.796c0 1.336-2.725 6.096-3.9 6.096-.164 0-.319-.069-.466-.165l-1.648-1.07-2.115 1.208.138 1.95c.08 1.142-2.105 1.345-3.9 1.345-1.695 0-3.982-.175-3.9-1.345l.138-1.95-2.115-1.209-1.648 1.071c-.147.096-.302.165-.467.165-1.238 0-3.9-4.777-3.9-6.124 0-.302.198-.62.495-.769l1.758-.879v-2.416l-1.758-.88a.89.89 0 0 1-.494-.796c0-1.298 2.639-6.096 3.9-6.096.164 0 .319.069.466.165l1.648 1.07 2.115-1.208-.11-1.977c-.054-.97 1.497-1.247 3.103-1.305l.386-.01.192-.003H14c1.698 0 3.978.185 3.9 1.318m-3.9.412c-.687 0-1.4.082-2.087.22l.11 1.785a.87.87 0 0 1-.44.796L8.535 8.041a.83.83 0 0 1-.44.11.8.8 0 0 1-.466-.138l-1.483-.988a10.5 10.5 0 0 0-2.087 3.652l1.565.796a.87.87 0 0 1 .494.77v3.515c0 .33-.197.62-.494.769l-1.593.796a10.7 10.7 0 0 0 2.115 3.625l1.483-.961c.147-.096.302-.165.467-.165.164 0 .3.058.439.137l3.048 1.73a.91.91 0 0 1 .44.824l-.11 1.785c.686.138 1.4.22 2.087.22s1.4-.082 2.087-.22l-.11-1.785a.91.91 0 0 1 .44-.824l3.048-1.73a.87.87 0 0 1 .44-.137c.164 0 .318.07.466.165l1.51.961a11.1 11.1 0 0 0 2.088-3.625l-1.593-.796a.87.87 0 0 1-.494-.77v-3.515c0-.33.197-.62.494-.769l1.593-.796a11.1 11.1 0 0 0-2.115-3.652l-1.483.988a.8.8 0 0 1-.466.138.83.83 0 0 1-.44-.11l-3.048-1.758a.87.87 0 0 1-.44-.796l.11-1.786A10.8 10.8 0 0 0 14 3.481m0 6.145a4.37 4.37 0 0 1 4.375 4.375A4.37 4.37 0 0 1 14 18.377a4.37 4.37 0 0 1-4.375-4.375A4.37 4.37 0 0 1 14 9.627m0 1.75a2.626 2.626 0 1 0 .001 5.251A2.626 2.626 0 0 0 14 11.377" clip-rule="evenodd"/></g><defs><clipPath id="a"><path fill="#fff" d="M0 0h28v28H0z"/></clipPath></defs></svg>
